X:109
T: ES WOLLT EIN MUELLER FRUEH AUFSTEHN
N: E0058C
O: Europa, Mitteleuropa, Deutschland, Hochwald, Bruchweiler; Schauren
R: erzaehlendes Volks - Lied, Sage, Mord
M: 4/4
L: 1/8
K: D
D2 | D2F2A2F2 | F3EE2
E2 | E2B2A2G2 | G3FF2
A2 | A2A2F2D2 | G2B2B2
d2 | c2B2A2F2 | E4D2

@@@ Tune index: 3759
